include/LD/assets/icons/action/new_event.svg

<?xml version="1.0"?><svg xmlns="http://www.w3.org/2000/svg" width="52" height="52" viewBox="0 0 52 52"><g fill="#fff"><path d="m46.5 20h-41c-0.8 0-1.5 0.7-1.5 1.5v24.5c0 2.2 1.8 4 4 4h36c2.2 0 4-1.8 4-4v-24.5c0-0.8-0.7-1.5-1.5-1.5z m-27.5 22c0 0.6-0.4 1-1 1h-4c-0.6 0-1-0.4-1-1v-4c0-0.6 0.4-1 1-1h4c0.6 0 1 0.4 1 1v4z m0-10c0 0.6-0.4 1-1 1h-4c-0.6 0-1-0.4-1-1v-4c0-0.6 0.4-1 1-1h4c0.6 0 1 0.4 1 1v4z m10 10c0 0.6-0.4 1-1 1h-4c-0.6 0-1-0.4-1-1v-4c0-0.6 0.4-1 1-1h4c0.6 0 1 0.4 1 1v4z m0-10c0 0.6-0.4 1-1 1h-4c-0.6 0-1-0.4-1-1v-4c0-0.6 0.4-1 1-1h4c0.6 0 1 0.4 1 1v4z m10 10c0 0.6-0.4 1-1 1h-4c-0.6 0-1-0.4-1-1v-4c0-0.6 0.4-1 1-1h4c0.6 0 1 0.4 1 1v4z m0-10c0 0.6-0.4 1-1 1h-4c-0.6 0-1-0.4-1-1v-4c0-0.6 0.4-1 1-1h4c0.6 0 1 0.4 1 1v4z m5-25h-5v-2c0-1.6-1.3-3-3-3-1.6 0-3 1.3-3 3v2h-14v-2c0-1.6-1.3-3-3-3-1.6 0-3 1.3-3 3v2h-5c-2.2 0-4 1.8-4 4v2.5c0 0.8 0.7 1.5 1.5 1.5h41c0.8 0 1.5-0.7 1.5-1.5v-2.5c0-2.2-1.8-4-4-4z"></path></g></svg>

<svg xmlns="http://www.w3.org/2000/svg" x="0px" y="0px"
	 width="52px" height="52px" viewBox="0 0 52 52" enable-background="new 0 0 52 52" xml:space="preserve">
<g>
	<path fill="#FFFFFF" d="M46.5,20h-41C4.7,20,4,20.7,4,21.5V46c0,2.2,1.8,4,4,4h36c2.2,0,4-1.8,4-4V21.5C48,20.7,47.3,20,46.5,20z
		 M19,42c0,0.6-0.4,1-1,1h-4c-0.6,0-1-0.4-1-1v-4c0-0.6,0.4-1,1-1h4c0.6,0,1,0.4,1,1V42z M19,32c0,0.6-0.4,1-1,1h-4
		c-0.6,0-1-0.4-1-1v-4c0-0.6,0.4-1,1-1h4c0.6,0,1,0.4,1,1V32z M29,42c0,0.6-0.4,1-1,1h-4c-0.6,0-1-0.4-1-1v-4c0-0.6,0.4-1,1-1h4
		c0.6,0,1,0.4,1,1V42z M29,32c0,0.6-0.4,1-1,1h-4c-0.6,0-1-0.4-1-1v-4c0-0.6,0.4-1,1-1h4c0.6,0,1,0.4,1,1V32z M39,42
		c0,0.6-0.4,1-1,1h-4c-0.6,0-1-0.4-1-1v-4c0-0.6,0.4-1,1-1h4c0.6,0,1,0.4,1,1V42z M39,32c0,0.6-0.4,1-1,1h-4c-0.6,0-1-0.4-1-1v-4
		c0-0.6,0.4-1,1-1h4c0.6,0,1,0.4,1,1V32z"/>
	<path fill="#FFFFFF" d="M44,7h-4h-1V5c0-1.6-1.3-3-3-3H36c-1.6,0-3,1.3-3,3v2H19V5c0-1.6-1.3-3-3-3H16c-1.6,0-3,1.3-3,3v2h-1H8
		c-2.2,0-4,1.8-4,4v2.5C4,14.3,4.7,15,5.5,15h41c0.8,0,1.5-0.7,1.5-1.5V11C48,8.8,46.2,7,44,7z"/>
</g>
</svg>
